X:1
T:Title
%%score { ( 1 3 ) | ( 2 4 ) }
L:1/8
Q:1/4=117
M:6/4
K:Ab
V:1 treble nm="Grand Piano"
V:3 treble 
V:2 bass 
V:4 bass 
V:1
 [CE]4 [_C=D]2 [=CE]4 [_DF]2 | [CE]2 [EA]2 B2 c6 | c4 B2 B2 E2 B2 | [CA]12 | %4
w: George~Stebbins * * *||||
 [CE]4 [_C=D]2 [=CE]4 [_DF]2 | [CE]2 [EA]2 B2 c6 | [Ge]4 [EB]2 B2 [B,F]2 [=DB]2 | E12 | %8
w: ||||
 B4 =A2 B4 c2 | B2 A2 G2 A6 | [Gd]4 [Gc]2 [Gd]4 [Ge]2 | d2 c2 B2 [Ec]6 | e4 =d2 e4 c2 | %13
w: |||||
 c2 B2 [EA]2 F6 | E4 c2 c2 B2 [G,DE]2 | [A,CA]12 |] %16
w: |||
V:2
 [A,,A,]4 [A,,A,]2 [A,,A,]4 [A,,A,]2 | A,,2 C,2 [E,G,E]2 [A,E]6 | %2
 [E,G,E]4 [E,G,D]2 [E,G,D]4 [E,G,D]2 | [A,,A,]12 | [A,,A,]4 [A,,A,]2 [A,,A,]4 [A,,A,]2 | %5
 A,,2 C,2 [E,G,E]2 [A,E]6 | [E,B,]4 [E,G,]2 .[B,,F,]4 [B,,A,]2 | [E,G,]12 | %8
 [E,G,D]4 [E,G,C]2 [E,G,D]4 [E,G,E]2 | [G,D]2 [A,C]2 [E,B,E]2 [A,CE]6 | %10
 [E,B,]4 [E,=A,]2 [E,B,]4 [E,C]2 | .B,6 z6 | [A,CA]4 [A,_CA]2 [A,=CA]4[K:bass] [A,E]2 | %13
 [A,,A,]2 [B,,G,]2 [C,A,]2 [D,A,D]6 | [E,A,C]4 [E,A,E]2 E2 D2 E,2 | A,,12 |] %16
V:3
 x12 | .A,6 z6 | x12 | x12 | x12 | .A,6 z6 | z6 .=D6 | x12 | x12 | x12 | x12 | x12 | x12 | .E6 z6 | %14
 x12 | x12 |] %16
V:4
 x12 | x12 | x12 | x12 | x12 | x12 | x12 | x12 | x12 | .E,6 z6 | x12 | %11
 [E,E]2- [E,A,E]2 [E,G,E]2 [A,,A,]6 | x10[K:bass] x2 | x12 | z6 .[E,G,]6 | x12 |] %16

